X: 11
T: Paddy O'Rafferty
R: jig
M: 6/8
L: 1/8
K: Dmix
|:Bdd dBd|egg gfe|dBB BAG|ABA GED|
Bdd dB/c/d|egg gfe|dBB BAG|ABA GED||
|:DBA A2B|DBA AGE|GBA ABA|G3 GED|
DBA A2B|DBA AGE|GBA ABA|G3 GED||


Tune 741	Setting 16806

